img/icons/svg/icon__heart.svg

<svg width="24" height="22" viewBox="0 0 24 22" fill="none" xmlns="http://www.w3.org/2000/svg">
<path d="M12 19.8873C11.7153 19.8873 11.4407 19.7841 11.2268 19.5968C10.4189 18.8903 9.63991 18.2264 8.95265 17.6407L8.94914 17.6377C6.93423 15.9206 5.19427 14.4378 3.98364 12.9771C2.63034 11.3441 2 9.79576 2 8.10433C2 6.46096 2.56351 4.94485 3.58661 3.83508C4.62191 2.71219 6.0425 2.09375 7.58715 2.09375C8.74163 2.09375 9.79891 2.45874 10.7295 3.1785C11.1992 3.54181 11.6249 3.98645 12 4.50509C12.3752 3.98645 12.8008 3.54181 13.2706 3.1785C14.2012 2.45874 15.2585 2.09375 16.413 2.09375C17.9575 2.09375 19.3782 2.71219 20.4135 3.83508C21.4366 4.94485 22 6.46096 22 8.10433C22 9.79576 21.3698 11.3441 20.0165 12.9769C18.8058 14.4378 17.066 15.9205 15.0514 17.6374C14.363 18.2239 13.5828 18.8889 12.773 19.5971C12.5592 19.7841 12.2846 19.8873 12 19.8873Z" fill="black"/>
</svg>

<svg width="24" height="22" viewBox="0 0 24 22" fill="none" xmlns="http://www.w3.org/2000/svg"><path d="M12 19.887c-.285 0-.56-.103-.773-.29-.808-.707-1.587-1.37-2.274-1.956l-.004-.003c-2.015-1.717-3.755-3.2-4.965-4.66C2.63 11.343 2 9.795 2 8.103c0-1.643.564-3.16 1.587-4.269a5.378 5.378 0 014-1.741 5.03 5.03 0 013.143 1.085c.47.363.895.807 1.27 1.326a6.43 6.43 0 011.27-1.326 5.03 5.03 0 013.143-1.085c1.544 0 2.965.618 4 1.741C21.438 4.945 22 6.461 22 8.105c0 1.69-.63 3.24-1.983 4.872-1.211 1.46-2.951 2.944-4.966 4.66-.688.587-1.468 1.252-2.278 1.96-.214.187-.488.29-.773.29z" fill="#000"/></svg>
